apps/marginfi-v2-ui/public/mrgn_logo_rounded.svg

<svg fill="none" height="512" viewBox="0 0 512 512" width="512" xmlns="http://www.w3.org/2000/svg"><circle cx="256" cy="256" fill="#0a0b0b" r="256"/><g fill="#c4c6bf"><path d="m380.13 231.674h-113.611v114h113.611z"/><path d="m266.519 120.326c-18.127 1.739-35.447 2.101-51.006 12.68-15.147 11.008-26.273 26.567-31.706 44.345-3.613 13.459-9.201 26.324-16.586 38.186-3.302 5.231-7.867 9.57-13.285 12.631-5.418 3.06-11.52 4.746-17.76 4.905h-4.404v112.601h8.441c18.128-1.738 35.374-2.029 51.007-12.608 15.11-11.06 26.203-26.636 31.632-44.417 6.385-19.709 12.477-38.838 29.871-51.809 3.221-2.004 6.858-3.267 10.641-3.695h3.008z"/></g></svg>

<svg width="512" height="512" viewBox="0 0 512 512" fill="none" xmlns="http://www.w3.org/2000/svg">
<circle cx="256" cy="256" r="256" fill="#0A0B0B"/>
<path d="M380.13 231.674H266.519V345.674H380.13V231.674Z" fill="#C4C6BF"/>
<path d="M266.519 120.326C248.392 122.065 231.072 122.427 215.513 133.006C200.366 144.014 189.24 159.573 183.807 177.351C180.194 190.81 174.606 203.675 167.221 215.537C163.919 220.768 159.354 225.107 153.936 228.168C148.518 231.228 142.416 232.914 136.176 233.073H131.772V345.674H140.213C158.341 343.936 175.587 343.645 191.22 333.066C206.33 322.006 217.423 306.43 222.852 288.649C229.237 268.94 235.329 249.811 252.723 236.84C255.944 234.836 259.581 233.573 263.364 233.145H266.372L266.519 120.326Z" fill="#C4C6BF"/>
</svg>
